X:5520
T:Resting Chair, The
O:england
C:Trad
M:C
K:G
|:B3c A3B | G2D2B,2G,2 | C2A2B,2 GD | ^CE AG F2D2 |
B3c A3B | G2D2B,2G,2|C2A2D2F2|[1 G6D2 :|[2G6d2|
cBAG g3d | e2g2d2B2|c3dB2G2 | E2AG F2D2|
cBAG g3d | e2g2d2B2| c3ed2F2 | G6d2 |
cBAG g3d| e2g2d2B2| c3dB2GD | ^CE AG F2D2|
B3cA3B | G2D2B,2G,2|C2A,2D2F2 | G8||
